X: 1
T: Skara Brudmarsch
C: Owe Green
O: from the playing of B\"ask
R: march
Z: 2021 John Chambers <jc:trillian.mit.edu>
N: from transcription by Janet Goldwasser with help from Bruce Sagan
M: C|
L: 1/8
K: G
"^A"|: D2 |\
G3A ~GFGB | {Bc}d4 gfe2 | c3e {gf}g2f2 | {dc}d6 B2 |\
G3A ~GFGB | {Bc}d4 ~c2AF | D3F A2F2 | {GF}G6 :|
"^B"|: GB |\
{dc}d4 f2{f}a2 | gagf d2{e}f2 | {ede}e4 {cBcB}c2ce | dedB G2GB |
{d}d2ed {cB}c2A2 | {E}F3D- DFAF | {F}G3A G2F2 | {F}G6 :|
